ui/StatusQ/src/assets/img/icons/filled-account.svg

<svg width="24" height="25" viewBox="0 0 24 25" fill="none" xmlns="http://www.w3.org/2000/svg">
<path d="M3 9.81994C3 7.89494 4.371 6.24294 6.263 5.88894L17.816 3.72194C18.431 3.60694 19 4.07894 19 4.70494V6.49994C19 7.05294 18.552 7.49994 18 7.49994H6.618C6.239 7.49994 5.893 7.71394 5.724 8.05294L5.5 8.49994C5.27 8.95994 5.604 9.49994 6.118 9.49994H20C20.552 9.49994 21 9.94794 21 10.4999V20.4999C21 21.0529 20.552 21.4999 20 21.4999H7C4.791 21.4999 3 19.7099 3 17.4999V9.81994ZM16 15.4999C16 16.3289 16.672 16.9999 17.5 16.9999C18.328 16.9999 19 16.3289 19 15.4999C19 14.6719 18.328 13.9999 17.5 13.9999C16.672 13.9999 16 14.6719 16 15.4999Z" fill="black"/>
</svg>

<svg fill="none" height="25" viewBox="0 0 24 25" width="24" xmlns="http://www.w3.org/2000/svg"><path d="m3 9.81994c0-1.925 1.371-3.577 3.263-3.931l11.553-2.167c.615-.115 1.184.357 1.184.983v1.795c0 .553-.448 1-1 1h-11.382c-.379 0-.725.214-.894.553l-.224.447c-.23.46.104 1 .618 1h13.882c.552 0 1 .448 1 .99996v10c0 .553-.448 1-1 1h-13c-2.209 0-4-1.79-4-4zm13 5.67996c0 .829.672 1.5 1.5 1.5s1.5-.671 1.5-1.5c0-.828-.672-1.5-1.5-1.5s-1.5.672-1.5 1.5z" fill="#000"/></svg>
